X:1
T:Hertfordshire, 87.87 D
T:Hertfordshire, 87.87 D
T:Charles Hutchinson Gabriel, 1906, alt.
T:Public Domain Courtesy of the Cyber Hymnal™
C:Charles Hutchinson Gabriel, 1906, alt.
Z:Public Domain
Z:Courtesy of the Cyber Hymnal™
%%score 1 ( 2 3 )
L:1/8
Q:1/4=105
M:4/4
K:Ab
V:1 treble 
V:2 bass 
V:3 bass 
V:1
 [A,C]>[B,D] | [CE]2 [CE]4 [CA]>[DB] | [Ec]2 [Ec]4 [Ec]>[EB] | [FA]3 [GB] [FA]2 [DF]2 | %4
 [CE]6 [A,C]>[B,D] | [CE]2 [CE]4 [EA]>[EB] | [Ec]2 [Ec]4 [EA]>[EA] | [EB]3 [EB] [=DB]2 [Dc]2 | %8
 [EB]6 [CA]>[CB] | [Ec]2 [Ee]4 [Ec]>[DB] | [CA]2 [Ec]4 [EA]>[EG] | [DF]3 [GB] [FA]2 [DF]2 | %12
 [CE]6 [CE]>[CE] | [DF]2 [FA]4 [EA]>[EB] | [Ec]2 [Ec]4 [Ec]>[Ed] | [Ee]2 [Ff]4 [Ec]>[EB] | [CA]6 |] %17
V:2
 [A,,E,]>[A,,E,] | [A,,A,]2 [A,,A,]4 [A,,A,]>[A,,A,] | A,2 A,4 A,>[C,A,] | %3
 [D,D]3 [D,D] [D,D]2 [D,A,]2 | [A,,A,]6 [A,,E,]>[A,,E,] | [A,,A,]2 [A,,A,]4 [C,A,]>[E,G,] | %6
 A,2 A,4 [C,A,]>[C,A,] | [E,G,]3 [E,G,] [B,,A,]2 [B,,A,]2 | [E,G,]6 A,>A, | %9
 A,2 [A,C]4 [A,,A,]>[A,,A,] | [A,,A,]2 [A,,A,]4 [C,A,]>[C,A,] | [D,A,]4 [D,D]2 [D,A,]2 | %12
 [A,,A,]6 [A,,A,]>[A,,A,] | [D,A,]2 [D,D]4 [C,A,]>[E,G,] | A,2 A,4 [E,A,]>[E,B,] | %15
 [E,C]6 [E,A,]>E, | [A,,E,]6 |] %17
V:3
 x2 | x8 | A,2 A,4 A,3/2 x/ | x8 | x8 | x8 | A,2 A,4 x2 | x8 | x6 A,>A, | A,2 x6 | x8 | x8 | x8 | %13
 x8 | A,2 A,4 x2 | x15/2 E,/ | x6 |] %17

